!!!OTL: O SEHT WIE RUND UND FEIN
!!!ARE: Europa, Mitteleuropa, Deutschland
!!!SCT: F0239
!!!YEM: Copyright 1995, estate of Helmut Schaffrath.
**kern
*ICvox
*Ivox
*M2/4
*k[b-]
*F:
{8cc
=1
8.a
16g
8.a
16b-
=2
4.cc}
{8a
=3
8.g
16f
8.g
16a
=4
2b-}
=5
{4a
16cc
16bn
16a
16bn
=6
4cc
8r}
{8cc
=7
8dd
8cc
8b-
8a
=8
4b-
8r}
{8b-
=9
8cc
8b-
8a
8g
=10
4a
8r}
{8a
=11
4g
16f
16e
16d
16e
=12
4f
8r}
==
!!!AGN: Jugend - Lied, Natur
!!!ONB: ESAC (Essen Associative Code) Database: FINK
!!!AMT: simple duple
!!!AIN: vox
!!!EED: Helmut Schaffrath
!!!EEV: 1.0
*-
